X: 35510
T: Ruffus And Molly's Wedding
R: polka
M: 2/4
K: Gmajor
[M:4/4]
f|:gBBd c2 Ac|BDDB ADDf|gBBd c2 Ac|Bfgf fedf|
gBBd c2 Ac|BDDB ADDc|BDDB ADDc|1 (3Bcd cA G3f:|2 (3Bcd cA G4||
|:FDFA cBAG|FGAB cdef|gfed ^cd=cd|BdcA BGGG|
B^cAc edcB|A^ced cBAG|FDGB ADDB|1 AGFE DCB,A,:|2 AGFE Dde||

